icon-svg/friends-of-hue-retrotouch-white-chrome.svg

<svg xmlns="http://www.w3.org/2000/svg" fill="#44739e" viewBox="0 0 24 24"><path d="M22.8.7H1.2c-.2 0-.5.3-.5.5v21.5c0 .3.2.5.5.5h21.5c.3 0 .5-.2.5-.5V1.2c.1-.2-.2-.5-.4-.5m-.5 21.6H1.7V1.7h20.5zM7.6 8.5h2.2c.3 0 .5-.2.5-.5s-.3-.5-.5-.5H7.6c-.3 0-.5.2-.5.5s.2.5.5.5m2.2 7.1H7.6c-.3 0-.5.2-.5.5s.2.5.5.5h2.2c.3 0 .5-.2.5-.5s-.3-.5-.5-.5m4.4-7.1h2.2c.3 0 .5-.2.5-.5s-.2-.5-.5-.5h-2.2c-.3 0-.5.2-.5.5s.2.5.5.5m2.2 7.1h-2.2c-.3 0-.5.2-.5.5s.2.5.5.5h2.2c.3 0 .5-.2.5-.5s-.2-.5-.5-.5m2-10.5h-13c-.6 0-1 .4-1 1v12c0 .6.4 1 1 1h12.9c.6 0 1-.4 1-1v-12c.1-.6-.4-1-.9-1m-.5 1.4v11h-5.4v-11zm-6.4 0v11H6v-11z"/></svg>

<svg viewBox="0 0 24 24" height="24px" width="24px" fill="#44739e" xmlns="http://www.w3.org/2000/svg"><title>hue:friends-of-hue-retrotouch-white-chrome</title><path d="M22.8,0.7H1.2C1,0.7,0.7,1,0.7,1.2v21.5c0,0.3,0.2,0.5,0.5,0.5h21.5c0.3,0,0.5-0.2,0.5-0.5V1.2C23.3,1,23,0.7,22.8,0.7z M22.3,22.3H1.7V1.7h20.5L22.3,22.3L22.3,22.3z M7.6,8.5h2.2c0.3,0,0.5-0.2,0.5-0.5S10,7.5,9.8,7.5H7.6C7.3,7.5,7.1,7.7,7.1,8S7.3,8.5,7.6,8.5z M9.8,15.6H7.6c-0.3,0-0.5,0.2-0.5,0.5c0,0.3,0.2,0.5,0.5,0.5h2.2c0.3,0,0.5-0.2,0.5-0.5S10,15.6,9.8,15.6z M14.2,8.5h2.2c0.3,0,0.5-0.2,0.5-0.5s-0.2-0.5-0.5-0.5h-2.2c-0.3,0-0.5,0.2-0.5,0.5S13.9,8.5,14.2,8.5z M16.4,15.6h-2.2c-0.3,0-0.5,0.2-0.5,0.5c0,0.3,0.2,0.5,0.5,0.5h2.2c0.3,0,0.5-0.2,0.5-0.5S16.7,15.6,16.4,15.6z M18.4,5.1H5.4c-0.6,0-1,0.4-1,1v12c0,0.6,0.4,1,1,1h12.9c0.6,0,1-0.4,1-1v-12C19.4,5.5,18.9,5.1,18.4,5.1z M17.9,6.5v11h-5.4v-11H17.9z M11.5,6.5v11H6v-11H11.5z"/></svg>
